X:406
T:Reel 406
M:4/4
K:Ador
L:1/8
GF|EA, (3CB,A, EA,CA,|B,DEF G2FG|EFG,B, CA,CD||EAAG ABcB:||2EAA^G A2|AB|cBcd cGEG|ABAG EAAB|cBcd ecdB|cABG EAAB|cBcd ecdB|cBAG EGAB|cBcA GFED|GAAG AFED|
